X:80
M:6/8
L:1/8
Q:3/8=50
K:E Minor
g>ab bag|b2 e/d/ B2g|B>AG/F/ G>AB/A/|G2 F E2:|
|:e/f/|g>fe Bef|g>eg f2e|g>fe Bef|g>ba/g/ f2e|
g>ab bag|b2 e/d/ B2g|1 B>AG/F/ G>AB/A/|

